X:1
T:Untitled in 3 (D minor) . SenH.122
T:Untitled in 3 (D minor) . SenH.122
T:in Hand C
C:in Hand C
L:1/8
Q:1/4=100
M:3/4
K:Dmin
V:1 treble 
V:1
 dfede^c | d4 e2 | fagfge | f4 e2 | fbagfe | fedefg | (ab) g3 a | a6 || afdfaA | =B3 A G2 | %10
 gfed^cd | e4 A2 | dA f3 e/d/ | eA g3 (f/e/) | fd A2 ^c2 | d6 |] %16

